src/Assets/Frame 1707481174.svg

<svg width="32" height="33" viewBox="0 0 32 33" fill="none" xmlns="http://www.w3.org/2000/svg">
<path d="M0 8.64795C0 4.22967 3.58172 0.647949 8 0.647949H24C28.4183 0.647949 32 4.22967 32 8.64795V24.6479C32 29.0662 28.4183 32.6479 24 32.6479H8C3.58172 32.6479 0 29.0662 0 24.6479V8.64795Z" fill="#D99E20" fill-opacity="0.2"/>
<g clip-path="url(#clip0_3268_23651)">
<path fill-rule="evenodd" clip-rule="evenodd" d="M15.9971 7.70703C17.3334 7.70665 18.6528 8.00583 19.8583 8.58255C21.0638 9.15928 22.1246 9.9989 22.9629 11.0396C23.8011 12.0804 24.3954 13.2958 24.702 14.5965C25.0086 15.8972 25.0197 17.25 24.7346 18.5556C24.4495 19.8611 23.8753 21.0862 23.0544 22.1406C22.2334 23.195 21.1865 24.052 19.9907 24.6485C18.7949 25.245 17.4806 25.5659 16.1445 25.5876C14.8083 25.6092 13.4843 25.3311 12.2698 24.7736L7.81352 25.5797C7.70176 25.5997 7.58672 25.5897 7.48007 25.5508C7.37343 25.5119 7.279 25.4454 7.20638 25.3582C7.13375 25.2709 7.08553 25.166 7.06661 25.054C7.04769 24.9421 7.05875 24.8272 7.09866 24.7209L8.37666 21.3189C7.54653 19.964 7.09247 18.4124 7.06122 16.8237C7.02997 15.2351 7.42266 13.6668 8.19886 12.2803C8.97506 10.8938 10.1067 9.73927 11.4774 8.93545C12.848 8.13164 14.4081 7.70761 15.9971 7.70703ZM15.5098 13.3629C15.6845 13.2909 15.873 13.2586 16.0617 13.2681C16.2504 13.2776 16.4346 13.3289 16.6012 13.4181C16.7677 13.5073 16.9124 13.6323 17.0249 13.7841C17.1374 13.936 17.2149 14.1108 17.2517 14.2961C17.2886 14.4814 17.284 14.6726 17.2382 14.8559C17.1924 15.0392 17.1065 15.2101 16.9868 15.3563C16.8671 15.5025 16.7165 15.6203 16.5458 15.7014C16.3751 15.7824 16.1886 15.8246 15.9997 15.825C15.7865 15.825 15.5821 15.9097 15.4314 16.0604C15.2807 16.2111 15.1961 16.4155 15.1961 16.6286V18.0172C15.1961 18.2303 15.2807 18.4347 15.4314 18.5854C15.5821 18.7361 15.7865 18.8207 15.9997 18.8207C16.2128 18.8207 16.4172 18.7361 16.5679 18.5854C16.7186 18.4347 16.8032 18.2303 16.8032 18.0172V17.3165C17.3182 17.1672 17.7815 16.8774 18.141 16.4796C18.5006 16.0818 18.7422 15.5917 18.8388 15.0643C18.9355 14.5368 18.8833 13.9929 18.6881 13.4935C18.4929 12.9941 18.1625 12.5589 17.7338 12.2367C17.3052 11.9146 16.7953 11.7182 16.2613 11.6696C15.7273 11.621 15.1903 11.7221 14.7105 11.9616C14.2308 12.2011 13.8272 12.5694 13.5451 13.0254C13.2629 13.4814 13.1134 14.007 13.1132 14.5432C13.1132 14.7563 13.1979 14.9607 13.3486 15.1114C13.4993 15.2621 13.7037 15.3467 13.9168 15.3467C14.1299 15.3467 14.3343 15.2621 14.485 15.1114C14.6357 14.9607 14.7204 14.7563 14.7204 14.5432C14.7204 14.2902 14.7954 14.043 14.9359 13.8327C15.0765 13.6224 15.2762 13.4585 15.5098 13.3616V13.3629ZM15.9997 22.2922C15.6945 22.2918 15.4019 22.1703 15.1864 21.9542C14.9708 21.7382 14.8499 21.4454 14.8502 21.1402C14.8506 20.835 14.9721 20.5424 15.1882 20.3269C15.4042 20.1113 15.697 19.9904 16.0022 19.9907H16.0048C16.31 19.9911 16.6025 20.1127 16.8181 20.3287C17.0337 20.5447 17.1546 20.8376 17.1542 21.1427C17.1539 21.4479 17.0323 21.7405 16.8163 21.956C16.6002 22.1716 16.3074 22.2925 16.0022 22.2922H15.9997Z" fill="#D99E20"/>
</g>
<defs>
<clipPath id="clip0_3268_23651">
<rect width="18" height="18" fill="white" transform="translate(7 7.64795)"/>
</clipPath>
</defs>
</svg>

<svg xmlns="http://www.w3.org/2000/svg" width="32" height="33" fill="none"><path fill="#D99E20" fill-opacity=".2" d="M0 8.648a8 8 0 0 1 8-8h16a8 8 0 0 1 8 8v16a8 8 0 0 1-8 8H8a8 8 0 0 1-8-8z"/><g clip-path="url(#a)"><path fill="#D99E20" fill-rule="evenodd" d="M15.997 7.707a8.941 8.941 0 1 1-3.727 17.067l-4.456.806a.643.643 0 0 1-.715-.86l1.278-3.401a8.94 8.94 0 0 1 7.62-13.612m-.487 5.656a1.28 1.28 0 1 1 .49 2.462.804.804 0 0 0-.804.804v1.388a.804.804 0 1 0 1.607 0v-.7a2.886 2.886 0 1 0-3.69-2.774.804.804 0 0 0 1.607 0 1.28 1.28 0 0 1 .79-1.181m.49 8.93a1.15 1.15 0 0 1 .002-2.302h.003a1.151 1.151 0 0 1-.003 2.301z" clip-rule="evenodd"/></g><defs><clipPath id="a"><path fill="#fff" d="M7 7.648h18v18H7z"/></clipPath></defs></svg>
